X:1
T:Children, the Wide World Over
T:Children, the Wide World Over
T:Fred C. Pullin
T:Flora Kirkland, 1903
T:Public Domain Courtesy of the Cyber Hymnal™
T:Public Domain Courtesy of the Cyber Hymnal™
C:Fred C. Pullin
Z:Public Domain
Z:Courtesy of the Cyber Hymnal™
%%score ( 1 2 ) ( 3 4 )
L:1/8
Q:1/4=105
M:4/4
K:Ab
V:1 treble 
V:2 treble 
V:3 bass 
V:4 bass 
V:1
 c6 ([CE]2 [CE]2) B>A | [CEc]2 [CEA]2 [=B,G]2 [B,F]2 | [CE]2 [CA]2 [DB]2 [CA]2 | [DG]6 z2 | %4
w: 1.~Child- ren, * the wide|world o- ver, Ral-|ly round your king;|Join|
w: 2.~Child- ren, * the wide|world o- ver, Tell|the sto- ry sweet;|Teach|
w: 3.~Tell how * the Babe|of Hea- ven Came|in match- less love—|Came|
 d6 ([DG]2 [DG]2) c>B | [DGd]2 [DGB]2 [DG=A]2 [DGB]2 | [CEc]2 [EA]2 [=DG]2 [DA]2 | [DEB]6 z2 | %8
w: in the * an- gel|chor- us, Let your|voic- es ring. Once|in|
w: o- ther * hearts to|praise Him; Bring them|to His feet. Come,|as|
w: from the * heights of|glo- ry That dear|love to prove. Tell|how|
 c6 ([CE]2 [CE]2) B>A | [Cc]2 [CA]2 [=B,G]2 [B,F]2 | G3 (z A) [=B,G]2 [B,F]2 | [CE]6 z2 | E6 =D>E | %13
w: a low- * ly man-|ger, Now ex- alt-|ed * high; Child-||ren, the wide|
w: the sag- * es, bear-|ing, Gifts, in wor-|ship * true, Bring||as your gift|
w: He brought * sal- va-|tion To this world|be- * low! Tell||how He gives|
 [Ee]2 [EB]2 [E=d]2 [Ec]2 | [EB]2 A>_D [DG]2 [DF]2 | E6 ||"^Refrain" E2 | %17
w: world o- ver, Sing,|for the time draws nigh!|||
w: to Je- sus Some|one to love Him too.|O|child-|
w: in mer- cy Balm|for the whole world’s woe.|||
 [EAce]2 [FA_c__e]2 [__EGBd]2 [EAc]2 | B4 [_DF]2 G>A | [Dc]2 [DB]2 [DG]2 [DB]2 | E6 E2 | %21
w: ||||
w: ren, ral- ly round|Him, Who was laid|in man- ger low;|The king-|
w: ||||
 [DE]2 [DF]2 [DG]2 [DEd]2 | c3 z B [CFA]2 [^D^Fc]2 | [EGB]2 [EGBe]2 [=DG]2 [DF]2 | E6 E2 | %25
w: ||||
w: ly Babe whose ad-|vent * night Was|* lit by star’s|bright glow.|
w: ||||
 [EAe]2 [FA_c__e]2 [__EGBd]2 [EAc]2 | B4 [_DF]2 A>A | [Dc]2 [DB]2 [DG]2 [DE]2 | %28
w: |||
w: O child- ren, ral-|ly round Him, On|His birth night, wel-|
w: |||
 c6 ([C_E]2 [CE]2) [CEc]2 | [F=Acf]2 [FAc]2 [FBd]2 B2 | [EBe]2 [EGB]2 [EAc]2 [EAc]2 | %31
w: |||
w: come sing! * Let|* earth re- spond|while Hea- ven sings!|
w: |||
 [DAd]2 c>B [EAc]2 [_DEGB]2 | [CEA]6 z2 |] %33
w: ||
w: O sing! lit- tle child-|ren,|
w: ||
V:2
 ([CE]2 [CE]2) x8 | x8 | x8 | x8 | ([DG]2 [DG]2) x8 | x8 | x8 | x8 | ([CE]2 [CE]2) x8 | x8 | %10
 C2 C2 x5 | x8 | (_C2 C2 C2) x2 | x8 | x2 =D2 x4 | E6 || E2 | x8 | (=D2 D2) =D2 x2 | x8 | %20
 (C2 C2 C2) E2 | x8 | [CE]2 [C=E]2 x5 | x8 | E6 E2 | x8 | (=D2 D2) =D2 x2 | x8 | [C=E]2 x10 | %29
 x6 B2 | x8 | x2 [=DA]2 x4 | x8 |] %33
V:3
 ([A,,E,]2 [E,,E,]2 [A,,E,]2) [E,,E,]2 x4 | [A,,E,]2 [A,,E,]2 [A,,=D,]2 [A,,D,]2 | %2
 [A,,E,]2 [A,,E,]2 [G,,E,]2 [A,,E,]2 | ([B,,E,]2 [E,,E,]2 [B,,E,]2 [E,,E,]2) | %4
 ([B,,E,]2 [E,,E,]2 [B,,E,]2) [E,,E,]2 x4 | [B,,E,]2 [E,,E,]2 [B,,E,]2 [E,,E,]2 | %6
 [A,,E,]2 [C,A,]2 [B,,B,]2 [B,,F,]2 | G,6 x2 | ([A,,E,]2 [E,,E,]2 [A,,E,]2) [E,,E,]2 x4 | %9
 [A,,E,]2 [A,,E,]2 [A,,=D,]2 [A,,D,]2 | E,2 [G,,E,]2 [G,,=D,]2 [G,,G,]2 x | %11
 ([C,G,]2 [G,,G,]2 [C,G,]2 [G,,G,]2) | ([_C,^F,]2 [C,F,]2 [C,F,]2) z2 | %13
 [B,,G,]2 [B,,G,]2 [=A,,^F,]2 [A,,F,]2 | [B,,G,]2 [B,,F,]2 [B,,B,]2 [B,,A,]2 | %15
 ([E,G,]2 D,2 E,,2) || z2 | C2 _C2 B,2 A,2 | ([F,A,]2 [B,,A,]2) [F,A,]2 [B,,A,]2 | %19
 [E,G,]2 [E,G,]2 [E,B,]2 [E,G,]2 | ([A,,A,]2 [E,,E,]2 [A,,A,]2) [C,A,]2 | %21
 [B,,G,]2 [B,,G,]2 [E,G,]2 [E,G,]2 | [A,,A,]2 [C,,C,]2 [F,,F,]2 [=A,,=A,]2 x | %23
 [B,,B,]2 [B,,B,]2 [B,,B,]2 [B,,A,]2 | ([E,G,]2 B,,2 E,,2) z2 | C2 _C2 B,2 A,2 | %26
 [F,A,]2 [B,,A,]2 [F,A,]2 [B,,A,]2 | [E,G,]2 [E,G,]2 [E,B,]2 [E,G,]2 | %28
 ([C,,C,]2 [=E,,=E,]2 [G,,G,]2) [C,,C,]2 x4 | [F,,F,]2 [=A,,=A,]2 [B,,B,]2 ([B,,B,][_A,,_A,]) | %30
 [G,,G,]2 [E,,E,]2 [A,,A,]2 [_G,,_G,]2 | [F,,F,]2 [B,,,B,,]2 [E,,E,]2 [E,,E,]2 | %32
 ([A,,A,]2 [E,,E,]2 [A,,,A,,]2) z2 |] %33
V:4
 x12 | x8 | x8 | x8 | x12 | x8 | x8 | (!>!E,2 !>!D,2 !>!C,2 !>!B,,2) | x12 | x8 | x9 | x8 | x8 | %13
 x8 | x8 | x6 || x2 | x8 | x8 | x8 | x8 | x8 | x9 | x8 | x8 | x8 | x8 | x8 | x12 | x8 | x8 | x8 | %32
 x8 |] %33

